X:1
T:Herzegovina, CMD
T:Herzegovina, CMD
T:George Benjamin Lissant (1827–1899)
T:Public Domain Courtesy of the Cyber Hymnal™
C:George Benjamin Lissant (1827–1899)
Z:Public Domain
Z:Courtesy of the Cyber Hymnal™
%%score ( 1 2 ) ( 3 4 )
L:1/8
Q:1/4=108
M:4/4
K:C
V:1 treble 
V:2 treble 
V:3 bass 
V:4 bass 
V:1
 [EG]2 | [EG]2 (AB) [Gc]2 [Ge]2 | [Gd]2 [Gc]2 [FB]2 [DA]2 | [EG]2!<(! [Ac]2 [GB]2!<)! [^FA]2 x | %4
 G6 [FG]2 | [EG]2 (AB) [Ec]2 [Ge]2 | [Fd]2 [Ec]2 [^DB]2 [DA]2 | [EG]2 [CE]2 E3 z D | C6 [CE]2 | %9
 D2 (E[B,F]) [CE]2 [DG]2 | [EG]2 (GB) [Dc]2 [DB]2 | [EA]2 (Bc) B2 [^DA]2 | G6 [DG]2 | %13
 [EG]2 (ed) [Ec]2 G2 | [GA]2 [FB]2 [Ec]2 [Af]2 | [Ge]2 [Gc]2 [Fc]3 [DB] | [Ec]6 |] %17
V:2
 x2 | x2 F2 x4 | x8 | x9 | (G2 D2 C2) x2 | x2 D2 x4 | x8 | x4 C2 B,2 x | C6 x2 | B,3 x5 | %10
 x2 E2 x4 | x2 E2 (E^C) x2 | (E4 F2) x2 | x2 F2 x G2 x | x8 | x8 | x6 |] %17
V:3
 [C,C]2 | [C,C]2 [F,C]2 [E,C]2 [C,C]2 | [B,,F]2 [C,E]2 [D,D]2 (A,B,) | [E,C]2 [C,E]2 D3 z C | %4
 B,4 [E,G,]2 (A,B,) | [C,C]2 [C,^F,]2 [C,G,]2 C2 | [^G,B,]2 A,2 [G,B,]2 z B, | %7
 [G,C]2 G,2 [G,,G,]2 [G,,F,]2 x | [C,E,]6 [C,G,]2 | G,3 [D,G,] [C,G,]2 [B,,G,]2 | %10
 [E,B,]2 [A,C]2 [^F,A,]2 G,2 | [C,G,]2 [B,,G,]2 [B,,^F,]2 [B,,B,]2 | B,6 [G,,B,]2 | %13
 (CG,) (A,B,) [C,C]2 [E,C]2 | [F,C]2 [D,D]2 [A,C]2 [F,C]2 | [G,C]2 [G,E]2 [G,D]2 [G,,G,]2 | %16
 [C,G,]6 |] %17
V:4
 x2 | x8 | x6 F,2 | x4 D,2 D,2 x | (G,2 F,2 D,2) x2 | x6 C2 | x2 A,2 F,2 x2 | x2 G,2 x5 | x8 | %9
 (G,F,) E, x5 | x6 G,2 | x8 | (E,4 D,2) x2 | C,2 C,2 x4 | x8 | x8 | x6 |] %17

